!!!OTL: Die Treue.
!!!OTL-incipit: MEIN SCHATZ DER GING DEN BERG HINAUF
!!!ARE: Europa, Mitteleuropa, Deutschland, Nord - Deutschland
!!!SCT: Z1186
!!!TXL: @@DE
!!!YEM: Copyright 1995, estate of Helmut Schaffrath.
**kern	**text
*ICvox	*
*M6/8	*
*k[]	*
*C:	*
!LO:TX:a:t=Norddeutſch.	!
{8g	Mein
=1	=1
4cc	Schatʒ
8cc	der
4b	ging
8b	den
=2	=2
4a	Berg
8a	hin-
4.g}	-auf,
=3	=3
{4f	ſchön-
8f	-ſtes
8e	lie-
8e	-bes
8g	Ger-
=4	=4
4g	-trud-
8b	.
4.cc;}	-chen!
=5	=5
{8cc	mit
8b	bit-
8cc	-term
8eeL	Wei-
8ddJ	.
8cc	-nen,
=6	=6
8dd	mit
8cc	bit-
8dd	-term
8ffL	Wei-
8eeJ	.
8ee}	-nen.
=7	=7
{4ee	Al-
8ee	-ler-
8ee	-ſchönſtes
8dd	.
8cc	Ger-
=8	=8
8eeeqq	.
4.dd	-trud-
4cc}	-chen!
==	==
!!!AGN: Liebes - Lied
!!!ONB: ESAC (Essen Associative Code) Database: ZUCCAL
!!!AMT: compound duple
!!!AIN: vox
!!!EED: Helmut Schaffrath
!!!EEV: 1.0
!!!GTL: V. Lieder der Minne.
!!!URL-scan: https://www.digitale-sammlungen.de/de/view/bsb11160573?page=384
!!!ENC: Anna Maria Matuszewska
!!!EEV: 2025/02/05
*-	*-
